Assets/My Assets/Textures/Lookup Textures/CustomLookupTable.CUBE
#Created by: Adobe Photoshop Export Color Lookup Plugin
TITLE "CustomLookupTable"
#LUT size
LUT_3D_SIZE 5
#data domain
#LUT data points
DOMAIN_MIN 0.000000 0.000000 0.000000
DOMAIN_MAX 0.903226 0.903226 0.903226
0.000000 0.000000 0.000000
0.002985 0.000000 0.000000
0.051591 0.000000 0.000000
1.000000 0.000000 0.000000
1.000000 0.000000 0.000000
0.000000 0.002985 0.000000
0.002985 0.002985 0.000000
0.051591 0.002354 0.000000
1.000000 0.001688 0.000000
1.000000 0.000978 0.000000
0.000000 0.051591 0.000000
0.002354 0.051591 0.000000
0.051591 0.051591 0.000000
1.000000 0.044247 0.000000
1.000000 0.038189 0.000000
0.000000 1.000000 0.000000
0.001688 1.000000 0.000000
0.044247 1.000000 0.000000
1.000000 1.000000 0.000000
1.000000 1.000000 0.000000
0.000000 1.000000 0.000000
0.000978 1.000000 0.000000
0.038189 1.000000 0.000000
1.000000 1.000000 0.000000
1.000000 1.000000 0.000000
0.000000 0.000000 0.002985
0.002985 0.000000 0.002985
0.051591 0.000000 0.002354
1.000000 0.000000 0.001688
1.000000 0.000000 0.000978
0.000000 0.002985 0.002985
0.002503 0.002503 0.002503
0.045871 0.001870 0.001870
1.000000 0.001195 0.001195
1.000000 0.000505 0.000505
0.000000 0.051591 0.002354
0.001870 0.045871 0.001870
0.045871 0.045871 0.001870
1.000000 0.040074 0.001195
1.000000 0.034208 0.000505
0.000000 1.000000 0.001688
0.001195 1.000000 0.001195
0.040074 1.000000 0.001195
1.000000 1.000000 0.001195
1.000000 0.988960 0.000505
0.000000 1.000000 0.000978
0.000505 1.000000 0.000505
0.034208 1.000000 0.000505
0.988961 1.000000 0.000505
1.000000 1.000000 0.000505
0.000000 0.000000 0.051591
0.002354 0.000000 0.051591
0.051591 0.000000 0.051591
1.000000 0.000000 0.044247
1.000000 0.000000 0.038189
0.000000 0.002354 0.051591
0.001870 0.001870 0.045871
0.045871 0.001870 0.045871
1.000000 0.001195 0.040074
1.000000 0.000505 0.034208
0.000000 0.051591 0.051591
0.001870 0.045871 0.045871
0.040580 0.040580 0.040580
1.000000 0.035037 0.035037
1.000000 0.029870 0.029870
0.000000 1.000000 0.044247
0.001195 1.000000 0.040074
0.035037 1.000000 0.035037
1.000000 1.000000 0.035037
1.000000 0.880408 0.029870
0.000000 1.000000 0.038189
0.000505 1.000000 0.034208
0.029870 1.000000 0.029870
0.880409 1.000000 0.029870
1.000000 1.000000 0.029870
0.000000 0.000000 1.000000
0.001688 0.000000 1.000000
0.044247 0.000000 1.000000
1.000000 0.000000 1.000000
1.000000 0.000000 1.000000
0.000000 0.001688 1.000000
0.001195 0.001195 1.000000
0.040075 0.001195 1.000000
1.000000 0.001195 1.000000
1.000000 0.000505 0.988961
0.000000 0.044247 1.000000
0.001195 0.040074 1.000000
0.035037 0.035037 1.000000
1.000000 0.035037 1.000000
1.000000 0.029870 0.880406
0.000000 1.000000 1.000000
0.001195 1.000000 1.000000
0.035037 1.000000 1.000000
0.886898 0.886898 0.886898
1.000000 0.772184 0.772184
0.000000 1.000000 1.000000
0.000505 1.000000 0.988961
0.029870 1.000000 0.880409
0.772184 1.000000 0.772184
1.000000 1.000000 0.772184
0.000000 0.000000 1.000000
0.000978 0.000000 1.000000
0.038189 0.000000 1.000000
1.000000 0.000000 1.000000
1.000000 0.000000 1.000000
0.000000 0.000978 1.000000
0.000505 0.000505 1.000000
0.034208 0.000505 1.000000
0.988961 0.000505 1.000000
1.000000 0.000505 1.000000
0.000000 0.038189 1.000000
0.000505 0.034208 1.000000
0.029870 0.029870 1.000000
0.880409 0.029870 1.000000
1.000000 0.029870 1.000000
0.000000 1.000000 1.000000
0.000505 0.988961 1.000000
0.029870 0.880408 1.000000
0.772184 0.772184 1.000000
1.000000 0.772184 1.000000
0.000000 1.000000 1.000000
0.000505 1.000000 1.000000
0.029870 1.000000 1.000000
0.772184 1.000000 1.000000
1.000000 1.000000 1.000000
