Assets/My Assets/Textures/Lookup Textures/CustomLookupTable.CUBE
#Created by: Adobe Photoshop Export Color Lookup Plugin
TITLE "CustomLookupTable"
#LUT size
LUT_3D_SIZE 32
#data domain
DOMAIN_MIN 0.0 0.0 0.0
DOMAIN_MAX 1.0 1.0 1.0
#LUT data points
0.000000 0.000000 0.000000
0.000000 0.000000 0.000000
0.000000 0.000000 0.000000
0.000000 0.000000 0.000000
0.000000 0.000000 0.000000
0.000000 0.000000 0.000000
0.001350 0.000000 0.000000
0.002985 0.000000 0.000000
0.004898 0.000000 0.000000
0.007410 0.000000 0.000000
0.010940 0.000000 0.000000
0.016019 0.000000 0.000000
0.023436 0.000000 0.000000
0.034545 0.000000 0.000000
0.051591 0.000000 0.000000
0.078551 0.000000 0.000000
0.122401 0.000000 0.000000
0.195877 0.000000 0.000000
0.322576 0.000000 0.000000
0.548263 0.000000 0.000000
0.855242 0.000000 0.000000
1.000000 0.000000 0.000000
1.000000 0.000000 0.000000
1.000000 0.000000 0.000000
1.000000 0.000000 0.000000
1.000000 0.000000 0.000000
1.000000 0.000000 0.000000
1.000000 0.000000 0.000000
1.000000 0.000000 0.000000
1.000000 0.000000 0.000000
1.000000 0.000000 0.000000
1.000000 0.000000 0.000000
0.000000 0.000000 0.000000
0.000000 0.000000 0.000000
0.000000 0.000000 0.000000
0.000000 0.000000 0.000000
0.000000 0.000000 0.000000
0.000000 0.000000 0.000000
0.001350 0.000000 0.000000
0.002985 0.000000 0.000000
0.004898 0.000000 0.000000
0.007410 0.000000 0.000000
0.010940 0.000000 0.000000
0.016019 0.000000 0.000000
0.023436 0.000000 0.000000
0.034545 0.000000 0.000000
0.051591 0.000000 0.000000
0.078551 0.000000 0.000000
0.122401 0.000000 0.000000
0.195877 0.000000 0.000000
0.322576 0.000000 0.000000
0.548263 0.000000 0.000000
0.855242 0.000000 0.000000
1.000000 0.000000 0.000000
1.000000 0.000000 0.000000
1.000000 0.000000 0.000000
1.000000 0.000000 0.000000
1.000000 0.000000 0.000000
1.000000 0.000000 0.000000
1.000000 0.000000 0.000000
1.000000 0.000000 0.000000
1.000000 0.000000 0.000000
1.000000 0.000000 0.000000
1.000000 0.000000 0.000000
0.000000 0.000000 0.000000
0.000000 0.000000 0.000000
0.000000 0.000000 0.000000
0.000000 0.000000 0.000000
0.000000 0.000000 0.000000
0.000000 0.000000 0.000000
0.001350 0.000000 0.000000
0.002985 0.000000 0.000000
0.004898 0.000000 0.000000
0.007410 0.000000 0.000000
0.010940 0.000000 0.000000
0.016019 0.000000 0.000000
0.023436 0.000000 0.000000
0.034545 0.000000 0.000000
0.051591 0.000000 0.000000
0.078551 0.000000 0.000000
0.122401 0.000000 0.000000
0.195877 0.000000 0.000000
0.322576 0.000000 0.000000
0.548263 0.000000 0.000000
0.855242 0.000000 0.000000
1.000000 0.000000 0.000000
1.000000 0.000000 0.000000
1.000000 0.000000 0.000000
1.000000 0.000000 0.000000
1.000000 0.000000 0.000000
1.000000 0.000000 0.000000
1.000000 0.000000 0.000000
1.000000 0.000000 0.000000
1.000000 0.000000 0.000000
1.000000 0.000000 0.000000
1.000000 0.000000 0.000000
0.000000 0.000000 0.000000
0.000000 0.000000 0.000000
0.000000 0.000000 0.000000
0.000000 0.000000 0.000000
0.000000 0.000000 0.000000
0.000000 0.000000 0.000000
0.001350 0.000000 0.000000
0.002985 0.000000 0.000000
0.004898 0.000000 0.000000
0.007410 0.000000 0.000000
0.010940 0.000000 0.000000
0.016019 0.000000 0.000000
0.023436 0.000000 0.000000
0.034545 0.000000 0.000000
0.051591 0.000000 0.000000
0.078551 0.000000 0.000000
0.122401 0.000000 0.000000
0.195877 0.000000 0.000000
0.322576 0.000000 0.000000
0.548263 0.000000 0.000000
0.855242 0.000000 0.000000
1.000000 0.000000 0.000000
1.000000 0.000000 0.000000
1.000000 0.000000 0.000000
1.000000 0.000000 0.000000
1.000000 0.000000 0.000000
1.000000 0.000000 0.000000
1.000000 0.000000 0.000000
1.000000 0.000000 0.000000
1.000000 0.000000 0.000000
1.000000 0.000000 0.000000
1.000000 0.000000 0.000000
0.000000 0.000000 0.000000
0.000000 0.000000 0.000000
0.000000 0.000000 0.000000
0.000000 0.000000 0.000000
0.000000 0.000000 0.000000
0.000000 0.000000 0.000000
0.001350 0.000000 0.000000
0.002985 0.000000 0.000000
0.004898 0.000000 0.000000
0.007410 0.000000 0.000000
0.010940 0.000000 0.000000
0.016019 0.000000 0.000000
0.023436 0.000000 0.000000
0.034545 0.000000 0.000000
0.051591 0.000000 0.000000
0.078551 0.000000 0.000000
0.122401 0.000000 0.000000
0.195877 0.000000 0.000000
0.322576 0.000000 0.000000
0.548263 0.000000 0.000000
0.855242 0.000000 0.000000
1.000000 0.000000 0.000000
1.000000 0.000000 0.000000
1.000000 0.000000 0.000000
1.000000 0.000000 0.000000
1.000000 0.000000 0.000000
1.000000 0.000000 0.000000
1.000000 0.000000 0.000000
1.000000 0.000000 0.000000
1.000000 0.000000 0.000000
1.000000 0.000000 0.000000
1.000000 0.000000 0.000000
0.000000 0.000000 0.000000
0.000000 0.000000 0.000000
0.000000 0.000000 0.000000
0.000000 0.000000 0.000000
0.000000 0.000000 0.000000
0.000000 0.000000 0.000000
0.001350 0.000000 0.000000
0.002985 0.000000 0.000000
0.004898 0.000000 0.000000
0.007410 0.000000 0.000000
0.010940 0.000000 0.000000
0.016019 0.000000 0.000000
0.023436 0.000000 0.000000
0.034545 0.000000 0.000000
0.051591 0.000000 0.000000
0.078551 0.000000 0.000000
0.122401 0.000000 0.000000
0.195877 0.000000 0.000000
0.322576 0.000000 0.000000
0.548263 0.000000 0.000000
0.855242 0.000000 0.000000
1.000000 0.000000 0.000000
1.000000 0.000000 0.000000
1.000000 0.000000 0.000000
1.000000 0.000000 0.000000
1.000000 0.000000 0.000000
1.000000 0.000000 0.000000
1.000000 0.000000 0.000000
1.000000 0.000000 0.000000
1.000000 0.000000 0.000000
1.000000 0.000000 0.000000
1.000000 0.000000 0.000000
0.000000 0.001350 0.000000
0.000000 0.001350 0.000000
0.000000 0.001350 0.000000
0.000000 0.001350 0.000000
0.000000 0.001350 0.000000
0.000000 0.001350 0.000000
0.001350 0.001350 0.000000
0.002985 0.001275 0.000000
0.004898 0.001193 0.000000
0.007410 0.001111 0.000000
0.010940 0.001030 0.000000
0.016019 0.000939 0.000000
0.023436 0.000862 0.000000
0.034545 0.000761 0.000000
0.051591 0.000684 0.000000
0.078551 0.000588 0.000000
0.122401 0.000498 0.000000
0.195877 0.000411 0.000000
0.322576 0.000307 0.000000
0.548263 0.000201 0.000000
0.855242 0.000113 0.000000
1.000000 0.000019 0.000000
1.000000 0.000000 0.000000
1.000000 0.000000 0.000000
1.000000 0.000000 0.000000
1.000000 0.000000 0.000000
1.000000 0.000000 0.000000
1.000000 0.000000 0.000000
1.000000 0.000000 0.000000
1.000000 0.000000 0.000000
1.000000 0.000000 0.000000
1.000000 0.000000 0.000000
0.000000 0.002985 0.000000
0.000000 0.002985 0.000000
0.000000 0.002985 0.000000
0.000000 0.002985 0.000000
0.000000 0.002985 0.000000
0.000000 0.002985 0.000000
0.001275 0.002985 0.000000
0.002985 0.002985 0.000000
0.004898 0.002911 0.000000
0.007410 0.002818 0.000000
0.010940 0.002716 0.000000
0.016019 0.002643 0.000000
0.023436 0.002546 0.000000
0.034545 0.002462 0.000000
0.051591 0.002354 0.000000
0.078551 0.002270 0.000000
0.122401 0.002165 0.000000
0.195877 0.002084 0.000000
0.322576 0.001971 0.000000
0.548263 0.001879 0.000000
0.855242 0.001773 0.000000
1.000000 0.001688 0.000000
1.000000 0.001587 0.000000
1.000000 0.001485 0.000000
1.000000 0.001369 0.000000
1.000000 0.001278 0.000000
1.000000 0.001179 0.000000
1.000000 0.001069 0.000000
1.000000 0.000978 0.000000
1.000000 0.000876 0.000000
1.000000 0.000765 0.000000
1.000000 0.000672 0.000000
0.000000 0.004898 0.000000
0.000000 0.004898 0.000000
0.000000 0.004898 0.000000
0.000000 0.004898 0.000000
0.000000 0.004898 0.000000
0.000000 0.004898 0.000000
0.001193 0.004898 0.000000
0.002911 0.004898 0.000000
0.004898 0.004898 0.000000
0.007410 0.004800 0.000000
0.010940 0.004677 0.000000
0.016019 0.004560 0.000000
0.023436 0.004455 0.000000
0.034545 0.004329 0.000000
0.051591 0.004227 0.000000
0.078551 0.004095 0.000000
0.122401 0.003992 0.000000
0.195877 0.003857 0.000000
0.322576 0.003772 0.000000
0.548263 0.003657 0.000000
0.855242 0.003561 0.000000
1.000000 0.003455 0.000000
1.000000 0.003344 0.000000
1.000000 0.003249 0.000000
1.000000 0.003129 0.000000
1.000000 0.003039 0.000000
1.000000 0.002932 0.000000
1.000000 0.002826 0.000000
1.000000 0.002708 0.000000
1.000000 0.002611 0.000000
1.000000 0.002512 0.000000
1.000000 0.002393 0.000000
0.000000 0.007410 0.000000
0.000000 0.007410 0.000000
0.000000 0.007410 0.000000
0.000000 0.007410 0.000000
0.000000 0.007410 0.000000
0.000000 0.007410 0.000000
0.001111 0.007410 0.000000
0.002818 0.007410 0.000000
0.004800 0.007410 0.000000
0.007410 0.007410 0.000000
0.010940 0.007250 0.000000
0.016019 0.007105 0.000000
0.023436 0.006933 0.000000
0.034545 0.006784 0.000000
0.051591 0.006613 0.000000
0.078551 0.006456 0.000000
0.122401 0.006283 0.000000
0.195877 0.006140 0.000000
0.322576 0.006026 0.000000
0.548263 0.005894 0.000000
0.855242 0.005754 0.000000
1.000000 0.005643 0.000000
1.000000 0.005501 0.000000
1.000000 0.005388 0.000000
1.000000 0.005244 0.000000
1.000000 0.005118 0.000000
1.000000 0.004982 0.000000
1.000000 0.004861 0.000000
1.000000 0.004717 0.000000
1.000000 0.004571 0.000000
1.000000 0.004449 0.000000
1.000000 0.004310 0.000000
0.000000 0.010940 0.000000
0.000000 0.010940 0.000000
0.000000 0.010940 0.000000
0.000000 0.010940 0.000000
0.000000 0.010940 0.000000
0.000000 0.010940 0.000000
0.001030 0.010940 0.000000
0.002716 0.010940 0.000000
0.004677 0.010940 0.000000
0.007250 0.010940 0.000000
0.010940 0.010940 0.000000
0.016019 0.010741 0.000000
0.023436 0.010509 0.000000
0.034545 0.010273 0.000000
0.051591 0.010034 0.000000
0.078551 0.009792 0.000000
0.122401 0.009591 0.000000
0.195877 0.009407 0.000000
0.322576 0.009221 0.000000
0.548263 0.009033 0.000000
0.855242 0.008866 0.000000
1.000000 0.008683 0.000000
1.000000 0.008490 0.000000
1.000000 0.008298 0.000000
1.000000 0.008131 0.000000
1.000000 0.007934 0.000000
1.000000 0.007751 0.000000
1.000000 0.007567 0.000000
1.000000 0.007366 0.000000
1.000000 0.007195 0.000000
1.000000 0.006992 0.000000
1.000000 0.006804 0.000000
0.000000 0.016019 0.000000
0.000000 0.016019 0.000000
0.000000 0.016019 0.000000
0.000000 0.016019 0.000000
0.000000 0.016019 0.000000
0.000000 0.016019 0.000000
0.000939 0.016019 0.000000
0.002643 0.016019 0.000000
0.004560 0.016019 0.000000
0.007105 0.016019 0.000000
0.010741 0.016019 0.000000
0.016019 0.016019 0.000000
0.023436 0.015704 0.000000
0.034545 0.015355 0.000000
0.051591 0.015032 0.000000
0.078551 0.014683 0.000000
0.122401 0.014352 0.000000
0.195877 0.014103 0.000000
0.322576 0.013851 0.000000
0.548263 0.013597 0.000000
0.855242 0.013311 0.000000
1.000000 0.013052 0.000000
1.000000 0.012792 0.000000
1.000000 0.012529 0.000000
1.000000 0.012265 0.000000
1.000000 0.011999 0.000000
1.000000 0.011731 0.000000
1.000000 0.011461 0.000000
1.000000 0.011189 0.000000
1.000000 0.010916 0.000000
1.000000 0.010672 0.000000
1.000000 0.010396 0.000000
0.000000 0.023436 0.000000
0.000000 0.023436 0.000000
0.000000 0.023436 0.000000
0.000000 0.023436 0.000000
0.000000 0.023436 0.000000
0.000000 0.023436 0.000000
0.000862 0.023436 0.000000
0.002546 0.023436 0.000000
0.004455 0.023436 0.000000
0.006933 0.023436 0.000000
0.010509 0.023436 0.000000
0.015704 0.023436 0.000000
0.023436 0.023436 0.000000
0.034545 0.022953 0.000000
0.051591 0.022462 0.000000
0.078551 0.021960 0.000000
0.122401 0.021461 0.000000
0.195877 0.021032 0.000000
0.322576 0.020662 0.000000
0.548263 0.020288 0.000000
0.855242 0.019906 0.000000
1.000000 0.019532 0.000000
1.000000 0.019124 0.000000
1.000000 0.018743 0.000000
1.000000 0.018377 0.000000
1.000000 0.017986 0.000000
1.000000 0.017594 0.000000
1.000000 0.017199 0.000000
1.000000 0.016817 0.000000
1.000000 0.016432 0.000000
1.000000 0.016031 0.000000
1.000000 0.015657 0.000000
0.000000 0.034545 0.000000
0.000000 0.034545 0.000000
0.000000 0.034545 0.000000
0.000000 0.034545 0.000000
0.000000 0.034545 0.000000
0.000000 0.034545 0.000000
0.000761 0.034545 0.000000
0.002462 0.034545 0.000000
0.004329 0.034545 0.000000
0.006784 0.034545 0.000000
0.010273 0.034545 0.000000
0.015355 0.034545 0.000000
0.022953 0.034545 0.000000
0.034545 0.034545 0.000000
0.051591 0.033790 0.000000
0.078551 0.033056 0.000000
0.122401 0.032313 0.000000
0.195877 0.031561 0.000000
0.322576 0.030927 0.000000
0.548263 0.030370 0.000000
0.855242 0.029808 0.000000
1.000000 0.029241 0.000000
1.000000 0.028668 0.000000
1.000000 0.028091 0.000000
1.000000 0.027536 0.000000
1.000000 0.026958 0.000000
1.000000 0.026378 0.000000
1.000000 0.025824 0.000000
1.000000 0.025237 0.000000
1.000000 0.024654 0.000000
1.000000 0.024085 0.000000
1.000000 0.023520 0.000000
0.000000 0.051591 0.000000
0.000000 0.051591 0.000000
0.000000 0.051591 0.000000
0.000000 0.051591 0.000000
0.000000 0.051591 0.000000
0.000000 0.051591 0.000000
0.000684 0.051591 0.000000
0.002354 0.051591 0.000000
0.004227 0.051591 0.000000
0.006613 0.051591 0.000000
0.010034 0.051591 0.000000
0.015032 0.051591 0.000000
0.022462 0.051591 0.000000
0.033790 0.051591 0.000000
0.051591 0.051591 0.000000
0.078551 0.050441 0.000000
0.122401 0.049320 0.000000
0.195877 0.048167 0.000000
0.322576 0.047028 0.000000
0.548263 0.045967 0.000000
0.855242 0.045095 0.000000
1.000000 0.044247 0.000000
1.000000 0.043392 0.000000
1.000000 0.042530 0.000000
1.000000 0.041661 0.000000
1.000000 0.040787 0.000000
1.000000 0.039906 0.000000
1.000000 0.039051 0.000000
1.000000 0.038189 0.000000
1.000000 0.037323 0.000000
1.000000 0.036451 0.000000
1.000000 0.035599 0.000000
0.000000 0.078551 0.000000
0.000000 0.078551 0.000000
0.000000 0.078551 0.000000
0.000000 0.078551 0.000000
0.000000 0.078551 0.000000
0.000000 0.078551 0.000000
0.000588 0.078551 0.000000
0.002270 0.078551 0.000000
0.004095 0.078551 0.000000
0.006456 0.078551 0.000000
0.009792 0.078551 0.000000
0.014683 0.078551 0.000000
0.021960 0.078551 0.000000
0.033056 0.078551 0.000000
0.050441 0.078551 0.000000
0.078551 0.078551 0.000000
0.122401 0.076751 0.000000
0.195877 0.074935 0.000000
0.322576 0.073153 0.000000
0.548263 0.071327 0.000000
0.855242 0.069545 0.000000
1.000000 0.068060 0.000000
1.000000 0.066709 0.000000
1.000000 0.065377 0.000000
1.000000 0.064035 0.000000
1.000000 0.062682 0.000000
1.000000 0.061335 0.000000
1.000000 0.059987 0.000000
1.000000 0.058656 0.000000
1.000000 0.057325 0.000000
1.000000 0.055986 0.000000
1.000000 0.054642 0.000000
0.000000 0.122401 0.000000
0.000000 0.122401 0.000000
0.000000 0.122401 0.000000
0.000000 0.122401 0.000000
0.000000 0.122401 0.000000
0.000000 0.122401 0.000000
0.000498 0.122401 0.000000
0.002165 0.122401 0.000000
0.003992 0.122401 0.000000
0.006283 0.122401 0.000000
0.009591 0.122401 0.000000
0.014352 0.122401 0.000000
0.021461 0.122401 0.000000
0.032313 0.122401 0.000000
0.049320 0.122401 0.000000
0.076751 0.122401 0.000000
0.122401 0.122401 0.000000
0.195877 0.119468 0.000000
0.322576 0.116565 0.000000
0.548263 0.113663 0.000000
0.855242 0.110762 0.000000
1.000000 0.107866 0.000000
1.000000 0.104949 0.000000
1.000000 0.102678 0.000000
1.000000 0.100520 0.000000
1.000000 0.098378 0.000000
1.000000 0.096253 0.000000
1.000000 0.094114 0.000000
1.000000 0.091963 0.000000
1.000000 0.089840 0.000000
1.000000 0.087716 0.000000
1.000000 0.085621 0.000000
0.000000 0.195877 0.000000
0.000000 0.195877 0.000000
0.000000 0.195877 0.000000
0.000000 0.195877 0.000000
0.000000 0.195877 0.000000
0.000000 0.195877 0.000000
0.000411 0.195877 0.000000
0.002084 0.195877 0.000000
0.003857 0.195877 0.000000
0.006140 0.195877 0.000000
0.009407 0.195877 0.000000
0.014103 0.195877 0.000000
0.021032 0.195877 0.000000
0.031561 0.195877 0.000000
0.048167 0.195877 0.000000
0.074935 0.195877 0.000000
0.119468 0.195877 0.000000
0.195877 0.195877 0.000000
0.322576 0.191058 0.000000
0.548263 0.186223 0.000000
0.855242 0.181405 0.000000
1.000000 0.176576 0.000000
1.000000 0.171798 0.000000
1.000000 0.167043 0.000000
1.000000 0.162280 0.000000
1.000000 0.158370 0.000000
1.000000 0.154861 0.000000
1.000000 0.151354 0.000000
1.000000 0.147868 0.000000
1.000000 0.144402 0.000000
1.000000 0.140931 0.000000
1.000000 0.137494 0.000000
0.000000 0.322576 0.000000
0.000000 0.322576 0.000000
0.000000 0.322576 0.000000
0.000000 0.322576 0.000000
0.000000 0.322576 0.000000
0.000000 0.322576 0.000000
0.000307 0.322576 0.000000
0.001971 0.322576 0.000000
0.003772 0.322576 0.000000
0.006026 0.322576 0.000000
0.009221 0.322576 0.000000
0.013851 0.322576 0.000000
0.020662 0.322576 0.000000
0.030927 0.322576 0.000000
0.047028 0.322576 0.000000
0.073153 0.322576 0.000000
0.116565 0.322576 0.000000
0.191058 0.322576 0.000000
0.322576 0.322576 0.000000
0.548263 0.314342 0.000000
0.855242 0.306123 0.000000
1.000000 0.297929 0.000000
1.000000 0.289784 0.000000
1.000000 0.281671 0.000000
1.000000 0.273592 0.000000
1.000000 0.265580 0.000000
1.000000 0.257636 0.000000
1.000000 0.250317 0.000000
1.000000 0.244447 0.000000
1.000000 0.238615 0.000000
1.000000 0.232812 0.000000
1.000000 0.227050 0.000000
0.000000 0.548263 0.000000
0.000000 0.548263 0.000000
0.000000 0.548263 0.000000
0.000000 0.548263 0.000000
0.000000 0.548263 0.000000
0.000000 0.548263 0.000000
0.000201 0.548263 0.000000
0.001879 0.548263 0.000000
0.003657 0.548263 0.000000
0.005894 0.548263 0.000000
0.009033 0.548263 0.000000
0.013597 0.548263 0.000000
0.020288 0.548263 0.000000
0.030370 0.548263 0.000000
0.045967 0.548263 0.000000
0.071327 0.548263 0.000000
0.113663 0.548263 0.000000
0.186223 0.548263 0.000000
0.314342 0.548263 0.000000
0.548263 0.548263 0.000000
0.855242 0.534334 0.000000
1.000000 0.520161 0.000000
1.000000 0.505751 0.000000
1.000000 0.491169 0.000000
1.000000 0.476725 0.000000
1.000000 0.462433 0.000000
1.000000 0.448325 0.000000
1.000000 0.434375 0.000000
1.000000 0.420600 0.000000
1.000000 0.406987 0.000000
1.000000 0.395950 0.000000
1.000000 0.386014 0.000000
0.000000 0.855242 0.000000
0.000000 0.855242 0.000000
0.000000 0.855242 0.000000
0.000000 0.855242 0.000000
0.000000 0.855242 0.000000
0.000000 0.855242 0.000000
0.000113 0.855242 0.000000
0.001773 0.855242 0.000000
0.003561 0.855242 0.000000
0.005754 0.855242 0.000000
0.008866 0.855242 0.000000
0.013311 0.855242 0.000000
0.019906 0.855242 0.000000
0.029808 0.855242 0.000000
0.045095 0.855242 0.000000
0.069545 0.855242 0.000000
0.110762 0.855242 0.000000
0.181405 0.855242 0.000000
0.306123 0.855242 0.000000
0.534332 0.855242 0.000000
0.855242 0.855242 0.000000
1.000000 0.839520 0.000000
1.000000 0.823529 0.000000
1.000000 0.807254 0.000000
1.000000 0.790694 0.000000
1.000000 0.773855 0.000000
1.000000 0.756736 0.000000
1.000000 0.739297 0.000000
1.000000 0.721555 0.000000
1.000000 0.703520 0.000000
1.000000 0.685194 0.000000
1.000000 0.666519 0.000000
0.000000 1.000000 0.000000
0.000000 1.000000 0.000000
0.000000 1.000000 0.000000
0.000000 1.000000 0.000000
0.000000 1.000000 0.000000
0.000000 1.000000 0.000000
0.000019 1.000000 0.000000
0.001688 1.000000 0.000000
0.003455 1.000000 0.000000
0.005643 1.000000 0.000000
0.008683 1.000000 0.000000
0.013052 1.000000 0.000000
0.019532 1.000000 0.000000
0.029241 1.000000 0.000000
0.044247 1.000000 0.000000
0.068060 1.000000 0.000000
0.107866 1.000000 0.000000
0.176576 1.000000 0.000000
0.297929 1.000000 0.000000
0.520161 1.000000 0.000000
0.839520 1.000000 0.000000
1.000000 1.000000 0.000000
1.000000 1.000000 0.000000
1.000000 1.000000 0.000000
1.000000 1.000000 0.000000
1.000000 1.000000 0.000000
1.000000 1.000000 0.000000
1.000000 1.000000 0.000000
1.000000 1.000000 0.000000
1.000000 1.000000 0.000000
1.000000 1.000000 0.000000
1.000000 1.000000 0.000000
0.000000 1.000000 0.000000
0.000000 1.000000 0.000000
0.000000 1.000000 0.000000
0.000000 1.000000 0.000000
0.000000 1.000000 0.000000
0.000000 1.000000 0.000000
0.000000 1.000000 0.000000
0.001587 1.000000 0.000000
0.003344 1.000000 0.000000
0.005501 1.000000 0.000000
0.008490 1.000000 0.000000
0.012792 1.000000 0.000000
0.019124 1.000000 0.000000
0.028668 1.000000 0.000000
0.043392 1.000000 0.000000
0.066709 1.000000 0.000000
0.104949 1.000000 0.000000
0.171798 1.000000 0.000000
0.289784 1.000000 0.000000
0.505751 1.000000 0.000000
0.823529 1.000000 0.000000
1.000000 1.000000 0.000000
1.000000 1.000000 0.000000
1.000000 1.000000 0.000000
1.000000 1.000000 0.000000
1.000000 1.000000 0.000000
1.000000 1.000000 0.000000
1.000000 1.000000 0.000000
1.000000 1.000000 0.000000
1.000000 1.000000 0.000000
1.000000 1.000000 0.000000
1.000000 1.000000 0.000000
0.000000 1.000000 0.000000
0.000000 1.000000 0.000000
0.000000 1.000000 0.000000
0.000000 1.000000 0.000000
0.000000 1.000000 0.000000
0.000000 1.000000 0.000000
0.000000 1.000000 0.000000
0.001485 1.000000 0.000000
0.003249 1.000000 0.000000
0.005388 1.000000 0.000000
0.008298 1.000000 0.000000
0.012529 1.000000 0.000000
0.018743 1.000000 0.000000
0.028091 1.000000 0.000000
0.042530 1.000000 0.000000
0.065377 1.000000 0.000000
0.102678 1.000000 0.000000
0.167043 1.000000 0.000000
0.281671 1.000000 0.000000
0.491169 1.000000 0.000000
0.807254 1.000000 0.000000
1.000000 1.000000 0.000000
1.000000 1.000000 0.000000
1.000000 1.000000 0.000000
1.000000 1.000000 0.000000
1.000000 1.000000 0.000000
1.000000 1.000000 0.000000
1.000000 1.000000 0.000000
1.000000 1.000000 0.000000
1.000000 1.000000 0.000000
1.000000 1.000000 0.000000
1.000000 1.000000 0.000000
0.000000 1.000000 0.000000
0.000000 1.000000 0.000000
0.000000 1.000000 0.000000
0.000000 1.000000 0.000000
0.000000 1.000000 0.000000
0.000000 1.000000 0.000000
0.000000 1.000000 0.000000
0.001369 1.000000 0.000000
0.003129 1.000000 0.000000
0.005244 1.000000 0.000000
0.008131 1.000000 0.000000
0.012265 1.000000 0.000000
0.018377 1.000000 0.000000
0.027536 1.000000 0.000000
0.041661 1.000000 0.000000
0.064035 1.000000 0.000000
0.100520 1.000000 0.000000
0.162280 1.000000 0.000000
0.273592 1.000000 0.000000
0.476725 1.000000 0.000000
0.790694 1.000000 0.000000
1.000000 1.000000 0.000000
1.000000 1.000000 0.000000
1.000000 1.000000 0.000000
1.000000 1.000000 0.000000
1.000000 1.000000 0.000000
1.000000 1.000000 0.000000
1.000000 1.000000 0.000000
1.000000 1.000000 0.000000
1.000000 1.000000 0.000000
1.000000 1.000000 0.000000
1.000000 1.000000 0.000000
0.000000 1.000000 0.000000
0.000000 1.000000 0.000000
0.000000 1.000000 0.000000
0.000000 1.000000 0.000000
0.000000 1.000000 0.000000
0.000000 1.000000 0.000000
0.000000 1.000000 0.000000
0.001278 1.000000 0.000000
0.003039 1.000000 0.000000
0.005118 1.000000 0.000000
0.007934 1.000000 0.000000
0.011999 1.000000 0.000000
0.017986 1.000000 0.000000
0.026958 1.000000 0.000000
0.040787 1.000000 0.000000
0.062682 1.000000 0.000000
0.098378 1.000000 0.000000
0.158370 1.000000 0.000000
0.265580 1.000000 0.000000
0.462434 1.000000 0.000000
0.773853 1.000000 0.000000
1.000000 1.000000 0.000000
1.000000 1.000000 0.000000
1.000000 1.000000 0.000000
1.000000 1.000000 0.000000
1.000000 1.000000 0.000000
1.000000 1.000000 0.000000
1.000000 1.000000 0.000000
1.000000 1.000000 0.000000
1.000000 1.000000 0.000000
1.000000 1.000000 0.000000
1.000000 1.000000 0.000000
0.000000 1.000000 0.000000
0.000000 1.000000 0.000000
0.000000 1.000000 0.000000
0.000000 1.000000 0.000000
0.000000 1.000000 0.000000
0.000000 1.000000 0.000000
0.000000 1.000000 0.000000
0.001179 1.000000 0.000000
0.002932 1.000000 0.000000
0.004982 1.000000 0.000000
0.007751 1.000000 0.000000
0.011731 1.000000 0.000000
0.017594 1.000000 0.000000
0.026378 1.000000 0.000000
0.039906 1.000000 0.000000
0.061335 1.000000 0.000000
0.096252 1.000000 0.000000
0.154861 1.000000 0.000000
0.257636 1.000000 0.000000
0.448324 1.000000 0.000000
0.756735 1.000000 0.000000
1.000000 1.000000 0.000000
1.000000 1.000000 0.000000
1.000000 1.000000 0.000000
1.000000 1.000000 0.000000
1.000000 1.000000 0.000000
1.000000 1.000000 0.000000
1.000000 1.000000 0.000000
1.000000 1.000000 0.000000
1.000000 1.000000 0.000000
1.000000 1.000000 0.000000
1.000000 1.000000 0.000000
0.000000 1.000000 0.000000
0.000000 1.000000 0.000000
0.000000 1.000000 0.000000
0.000000 1.000000 0.000000
0.000000 1.000000 0.000000
0.000000 1.000000 0.000000
0.000000 1.000000 0.000000
0.001069 1.000000 0.000000
0.002826 1.000000 0.000000
0.004861 1.000000 0.000000
0.007567 1.000000 0.000000
0.011461 1.000000 0.000000
0.017199 1.000000 0.000000
0.025824 1.000000 0.000000
0.039051 1.000000 0.000000
0.059987 1.000000 0.000000
0.094114 1.000000 0.000000
0.151354 1.000000 0.000000
