Assets/My Assets/Textures/Lookup Textures/CustomLookupTable.CUBE
#Created by: Adobe Photoshop Export Color Lookup Plugin
TITLE "CustomLookupTable"
#LUT size
LUT_3D_SIZE 8
#data domain
#LUT data points
DOMAIN_MIN 0.000000 0.000000 0.000000
DOMAIN_MAX 0.903226 0.903226 0.903226
0.000000 0.000000 0.000000
0.000000 0.000000 0.000000
0.004898 0.000000 0.000000
0.023436 0.000000 0.000000
0.122401 0.000000 0.000000
0.855242 0.000000 0.000000
1.000000 0.000000 0.000000
1.000000 0.000000 0.000000
0.000000 0.000000 0.000000
0.000000 0.000000 0.000000
0.004898 0.000000 0.000000
0.023436 0.000000 0.000000
0.122401 0.000000 0.000000
0.855242 0.000000 0.000000
1.000000 0.000000 0.000000
1.000000 0.000000 0.000000
0.000000 0.004898 0.000000
0.000000 0.004898 0.000000
0.004898 0.004898 0.000000
0.023436 0.004455 0.000000
0.122401 0.003992 0.000000
0.855242 0.003561 0.000000
1.000000 0.003129 0.000000
1.000000 0.002708 0.000000
0.000000 0.023436 0.000000
0.000000 0.023436 0.000000
0.004455 0.023436 0.000000
0.023436 0.023436 0.000000
0.122401 0.021461 0.000000
0.855242 0.019906 0.000000
1.000000 0.018377 0.000000
1.000000 0.016817 0.000000
0.000000 0.122401 0.000000
0.000000 0.122401 0.000000
0.003992 0.122401 0.000000
0.021461 0.122401 0.000000
0.122401 0.122401 0.000000
0.855242 0.110762 0.000000
1.000000 0.100520 0.000000
1.000000 0.091963 0.000000
0.000000 0.855242 0.000000
0.000000 0.855242 0.000000
0.003561 0.855242 0.000000
0.019906 0.855242 0.000000
0.110762 0.855242 0.000000
0.855242 0.855242 0.000000
1.000000 0.790694 0.000000
1.000000 0.721555 0.000000
0.000000 1.000000 0.000000
0.000000 1.000000 0.000000
0.003129 1.000000 0.000000
0.018377 1.000000 0.000000
0.100520 1.000000 0.000000
0.790694 1.000000 0.000000
1.000000 1.000000 0.000000
1.000000 1.000000 0.000000
0.000000 1.000000 0.000000
0.000000 1.000000 0.000000
0.002708 1.000000 0.000000
0.016817 1.000000 0.000000
0.091963 1.000000 0.000000
0.721555 1.000000 0.000000
1.000000 1.000000 0.000000
1.000000 1.000000 0.000000
0.000000 0.000000 0.000000
0.000000 0.000000 0.000000
0.004898 0.000000 0.000000
0.023436 0.000000 0.000000
0.122401 0.000000 0.000000
0.855242 0.000000 0.000000
1.000000 0.000000 0.000000
1.000000 0.000000 0.000000
0.000000 0.000000 0.000000
0.000000 0.000000 0.000000
0.004567 0.000000 0.000000
0.022084 0.000000 0.000000
0.114749 0.000000 0.000000
0.814907 0.000000 0.000000
1.000000 0.000000 0.000000
1.000000 0.000000 0.000000
0.000000 0.004898 0.000000
0.000000 0.004567 0.000000
0.004567 0.004567 0.000000
0.022084 0.004128 0.000000
0.114749 0.003700 0.000000
0.814907 0.003301 0.000000
1.000000 0.002893 0.000000
1.000000 0.002468 0.000000
0.000000 0.023436 0.000000
0.000000 0.022084 0.000000
0.004128 0.022084 0.000000
0.022084 0.022084 0.000000
0.114749 0.020417 0.000000
0.814907 0.018931 0.000000
1.000000 0.017418 0.000000
1.000000 0.015884 0.000000
0.000000 0.122401 0.000000
0.000000 0.114749 0.000000
0.003700 0.114749 0.000000
0.020417 0.114749 0.000000
0.114749 0.114749 0.000000
0.814907 0.103689 0.000000
1.000000 0.095272 0.000000
1.000000 0.086903 0.000000
0.000000 0.855242 0.000000
0.000000 0.814907 0.000000
0.003301 0.814907 0.000000
0.018931 0.814907 0.000000
0.103689 0.814907 0.000000
0.814907 0.814907 0.000000
1.000000 0.748807 0.000000
1.000000 0.677866 0.000000
0.000000 1.000000 0.000000
0.000000 1.000000 0.000000
0.002893 1.000000 0.000000
0.017418 1.000000 0.000000
0.095272 1.000000 0.000000
0.748807 1.000000 0.000000
1.000000 1.000000 0.000000
1.000000 1.000000 0.000000
0.000000 1.000000 0.000000
0.000000 1.000000 0.000000
0.002468 1.000000 0.000000
0.015884 1.000000 0.000000
0.086904 1.000000 0.000000
0.677867 1.000000 0.000000
1.000000 1.000000 0.000000
1.000000 1.000000 0.000000
0.000000 0.000000 0.004898
0.000000 0.000000 0.004898
0.004898 0.000000 0.004898
0.023436 0.000000 0.004455
0.122401 0.000000 0.003992
0.855242 0.000000 0.003561
1.000000 0.000000 0.003129
1.000000 0.000000 0.002708
0.000000 0.000000 0.004898
0.000000 0.000000 0.004567
0.004567 0.000000 0.004567
0.022084 0.000000 0.004128
0.114749 0.000000 0.003700
0.814907 0.000000 0.003301
1.000000 0.000000 0.002893
1.000000 0.000000 0.002468
0.000000 0.004898 0.004898
0.000000 0.004567 0.004567
0.004171 0.004171 0.004171
0.020632 0.003762 0.003762
0.105416 0.003356 0.003356
0.762694 0.002960 0.002960
1.000000 0.002554 0.002554
1.000000 0.002139 0.002139
0.000000 0.023436 0.004455
0.000000 0.022084 0.004128
0.003762 0.020632 0.003762
0.020632 0.020632 0.003762
0.105416 0.019197 0.003356
0.762694 0.017719 0.002960
1.000000 0.016232 0.002554
1.000000 0.014725 0.002139
0.000000 0.122401 0.003992
0.000000 0.114749 0.003700
0.003356 0.105416 0.003356
0.019197 0.105416 0.003356
0.105416 0.105416 0.003356
0.762694 0.096979 0.002960
1.000000 0.088781 0.002554
1.000000 0.080662 0.002139
0.000000 0.855242 0.003561
0.000000 0.814907 0.003301
0.002960 0.762694 0.002960
0.017719 0.762694 0.002960
0.096979 0.762694 0.002960
0.762695 0.762694 0.002960
1.000000 0.694458 0.002554
1.000000 0.627588 0.002139
0.000000 1.000000 0.003129
0.000000 1.000000 0.002893
0.002554 1.000000 0.002554
0.016232 1.000000 0.002554
0.088781 1.000000 0.002554
0.694458 1.000000 0.002554
1.000000 1.000000 0.002554
1.000000 1.000000 0.002139
0.000000 1.000000 0.002708
0.000000 1.000000 0.002468
0.002139 1.000000 0.002139
0.014725 1.000000 0.002139
0.080662 1.000000 0.002139
0.627588 1.000000 0.002139
1.000000 1.000000 0.002139
1.000000 1.000000 0.002139
0.000000 0.000000 0.023436
0.000000 0.000000 0.023436
0.004455 0.000000 0.023436
0.023436 0.000000 0.023436
0.122401 0.000000 0.021461
0.855242 0.000000 0.019906
1.000000 0.000000 0.018377
1.000000 0.000000 0.016817
0.000000 0.000000 0.023436
0.000000 0.000000 0.022084
0.004128 0.000000 0.022084
0.022084 0.000000 0.022084
0.114749 0.000000 0.020417
0.814907 0.000000 0.018931
1.000000 0.000000 0.017418
1.000000 0.000000 0.015884
0.000000 0.004455 0.023436
0.000000 0.004128 0.022084
0.003762 0.003762 0.020632
0.020632 0.003762 0.020632
0.105416 0.003356 0.019197
0.762694 0.002960 0.017719
1.000000 0.002554 0.016232
1.000000 0.002139 0.014725
0.000000 0.023436 0.023436
0.000000 0.022084 0.022084
0.003762 0.020632 0.020632
0.019280 0.019280 0.019280
0.097786 0.017865 0.017865
0.703515 0.016432 0.016432
1.000000 0.014962 0.014962
1.000000 0.013710 0.013710
0.000000 0.122401 0.021461
0.000000 0.114749 0.020417
0.003356 0.105416 0.019197
0.017865 0.097786 0.017865
0.097786 0.097786 0.017865
0.703515 0.089839 0.016432
1.000000 0.081913 0.014962
1.000000 0.074024 0.013710
0.000000 0.855242 0.019906
0.000000 0.814907 0.018931
0.002960 0.762694 0.017719
0.016432 0.703515 0.016432
0.089839 0.703515 0.016432
0.703515 0.703515 0.016432
1.000000 0.636224 0.014962
1.000000 0.579949 0.013710
0.000000 1.000000 0.018377
0.000000 1.000000 0.017418
0.002554 1.000000 0.016232
0.014962 1.000000 0.014962
0.081913 1.000000 0.014962
0.636224 1.000000 0.014962
1.000000 1.000000 0.014962
1.000000 1.000000 0.013710
0.000000 1.000000 0.016817
0.000000 1.000000 0.015884
0.002139 1.000000 0.014725
0.013710 1.000000 0.013710
0.074024 1.000000 0.013710
0.579949 1.000000 0.013710
1.000000 1.000000 0.013710
1.000000 1.000000 0.013710
0.000000 0.000000 0.122401
0.000000 0.000000 0.122401
0.003992 0.000000 0.122401
0.021461 0.000000 0.122401
0.122401 0.000000 0.122401
0.855242 0.000000 0.110762
1.000000 0.000000 0.100520
1.000000 0.000000 0.091963
0.000000 0.000000 0.122401
0.000000 0.000000 0.114749
0.003700 0.000000 0.114749
0.020417 0.000000 0.114749
0.114749 0.000000 0.114749
0.814907 0.000000 0.103689
1.000000 0.000000 0.095272
1.000000 0.000000 0.086903
0.000000 0.003992 0.122401
0.000000 0.003700 0.114749
0.003356 0.003356 0.105416
0.019197 0.003356 0.105416
0.105416 0.003356 0.105416
0.762694 0.002960 0.096979
1.000000 0.002554 0.088781
1.000000 0.002139 0.080662
0.000000 0.021461 0.122401
0.000000 0.020417 0.114749
0.003356 0.019197 0.105416
0.017865 0.017865 0.097786
0.097786 0.017865 0.097786
0.703515 0.016432 0.089839
1.000000 0.014962 0.081913
1.000000 0.013710 0.074024
0.000000 0.122402 0.122401
0.000000 0.114749 0.114749
0.003356 0.105416 0.105416
0.017865 0.097786 0.097786
0.090188 0.090188 0.090188
0.640358 0.082513 0.082513
1.000000 0.074843 0.074843
1.000000 0.067682 0.067682
0.000000 0.855242 0.110762
0.000000 0.814907 0.103689
0.002960 0.762694 0.096979
0.016432 0.703515 0.089839
0.082513 0.640358 0.082513
0.640358 0.640358 0.082513
1.000000 0.585880 0.074843
1.000000 0.527824 0.067682
0.000000 1.000000 0.100520
0.000000 1.000000 0.095272
0.002554 1.000000 0.088781
0.014962 1.000000 0.081913
0.074843 1.000000 0.074843
0.585880 1.000000 0.074843
1.000000 1.000000 0.074843
1.000000 1.000000 0.067682
0.000000 1.000000 0.091963
0.000000 1.000000 0.086904
0.002139 1.000000 0.080662
0.013710 1.000000 0.074025
0.067682 1.000000 0.067682
0.527824 1.000000 0.067682
1.000000 1.000000 0.067682
1.000000 1.000000 0.067682
0.000000 0.000000 0.855242
0.000000 0.000000 0.855242
0.003561 0.000000 0.855242
0.019906 0.000000 0.855242
0.110762 0.000000 0.855242
0.855242 0.000000 0.855241
1.000000 0.000000 0.790695
1.000000 0.000000 0.721550
0.000000 0.000000 0.855242
0.000000 0.000000 0.814907
0.003301 0.000000 0.814907
0.018931 0.000000 0.814907
0.103689 0.000000 0.814907
0.814907 0.000000 0.814906
1.000000 0.000000 0.748807
1.000000 0.000000 0.677866
0.000000 0.003561 0.855242
0.000000 0.003301 0.814907
0.002960 0.002960 0.762694
0.017720 0.002960 0.762694
0.096979 0.002960 0.762694
0.762694 0.002960 0.762693
1.000000 0.002554 0.694456
1.000000 0.002139 0.627586
0.000000 0.019906 0.855242
0.000000 0.018931 0.814907
0.002960 0.017719 0.762694
0.016432 0.016432 0.703515
0.089839 0.016432 0.703515
0.703515 0.016432 0.703514
1.000000 0.014962 0.636223
1.000000 0.013710 0.579949
0.000000 0.110762 0.855242
0.000000 0.103689 0.814907
0.002960 0.096979 0.762694
0.016432 0.089839 0.703515
0.082513 0.082513 0.640358
0.640358 0.082513 0.640358
1.000000 0.074843 0.585880
1.000000 0.067682 0.527824
0.000000 0.855243 0.855242
0.000000 0.814907 0.814907
0.002960 0.762695 0.762694
0.016432 0.703515 0.703515
0.082513 0.640359 0.640358
0.587794 0.587794 0.587794
1.000000 0.531551 0.531551
1.000000 0.472283 0.472283
0.000000 1.000000 0.790694
0.000000 1.000000 0.748807
0.002554 1.000000 0.694458
0.014962 1.000000 0.636224
0.074843 1.000000 0.585880
0.531551 1.000000 0.531551
1.000000 1.000000 0.531551
1.000000 1.000000 0.472283
0.000000 1.000000 0.721555
0.000000 1.000000 0.677867
0.002139 1.000000 0.627588
0.013710 1.000000 0.579950
0.067682 1.000000 0.527824
0.472283 1.000000 0.472283
1.000000 1.000000 0.472283
1.000000 1.000000 0.472283
0.000000 0.000000 1.000000
0.000000 0.000000 1.000000
0.003129 0.000000 1.000000
0.018377 0.000000 1.000000
0.100520 0.000000 1.000000
0.790692 0.000000 1.000000
1.000000 0.000000 1.000000
1.000000 0.000000 1.000000
0.000000 0.000000 1.000000
0.000000 0.000000 1.000000
0.002893 0.000000 1.000000
0.017418 0.000000 1.000000
0.095272 0.000000 1.000000
0.748807 0.000000 1.000000
1.000000 0.000000 1.000000
1.000000 0.000000 1.000000
0.000000 0.003129 1.000000
0.000000 0.002893 1.000000
0.002554 0.002554 1.000000
0.016232 0.002554 1.000000
0.088781 0.002554 1.000000
0.694458 0.002554 1.000000
1.000000 0.002554 1.000000
1.000000 0.002139 1.000000
0.000000 0.018377 1.000000
0.000000 0.017418 1.000000
0.002554 0.016232 1.000000
0.014962 0.014962 1.000000
0.081913 0.014962 1.000000
0.636226 0.014962 1.000000
1.000000 0.014962 1.000000
1.000000 0.013710 1.000000
0.000000 0.100519 1.000000
0.000000 0.095272 1.000000
0.002554 0.088781 1.000000
0.014962 0.081913 1.000000
0.074843 0.074843 1.000000
0.585880 0.074843 1.000000
1.000000 0.074843 1.000000
1.000000 0.067682 1.000000
0.000000 0.790692 1.000000
0.000000 0.748807 1.000000
0.002554 0.694454 1.000000
0.014962 0.636224 1.000000
0.074843 0.585880 1.000000
0.531551 0.531551 1.000000
1.000000 0.531551 1.000000
1.000000 0.472283 1.000000
0.000000 1.000000 1.000000
0.000000 1.000000 1.000000
0.002554 1.000000 1.000000
0.014962 1.000000 1.000000
0.074843 1.000000 1.000000
0.531551 1.000000 1.000000
1.000000 1.000000 1.000000
1.000000 1.000000 1.000000
0.000000 1.000000 1.000000
0.000000 1.000000 1.000000
0.002139 1.000000 1.000000
0.013710 1.000000 1.000000
0.067682 1.000000 1.000000
0.472283 1.000000 1.000000
1.000000 1.000000 1.000000
1.000000 1.000000 1.000000
0.000000 0.000000 1.000000
0.000000 0.000000 1.000000
0.002708 0.000000 1.000000
0.016817 0.000000 1.000000
0.091963 0.000000 1.000000
0.721556 0.000000 1.000000
1.000000 0.000000 1.000000
1.000000 0.000000 1.000000
0.000000 0.000000 1.000000
0.000000 0.000000 1.000000
0.002468 0.000000 1.000000
0.015884 0.000000 1.000000
0.086903 0.000000 1.000000
0.677866 0.000000 1.000000
1.000000 0.000000 1.000000
1.000000 0.000000 1.000000
0.000000 0.002708 1.000000
0.000000 0.002468 1.000000
0.002139 0.002139 1.000000
0.014725 0.002139 1.000000
0.080662 0.002139 1.000000
0.627589 0.002139 1.000000
1.000000 0.002139 1.000000
1.000000 0.002139 1.000000
0.000000 0.016817 1.000000
0.000000 0.015884 1.000000
0.002139 0.014725 1.000000
0.013710 0.013710 1.000000
0.074024 0.013710 1.000000
0.579949 0.013710 1.000000
1.000000 0.013710 1.000000
1.000000 0.013710 1.000000
0.000000 0.091963 1.000000
0.000000 0.086903 1.000000
0.002139 0.080662 1.000000
0.013710 0.074024 1.000000
0.067682 0.067682 1.000000
0.527824 0.067682 1.000000
1.000000 0.067682 1.000000
1.000000 0.067682 1.000000
0.000000 0.721550 1.000000
0.000000 0.677866 1.000000
0.002139 0.627586 1.000000
0.013710 0.579949 1.000000
0.067682 0.527824 1.000000
0.472283 0.472283 1.000000
1.000000 0.472283 1.000000
1.000000 0.472283 1.000000
0.000000 1.000000 1.000000
0.000000 1.000000 1.000000
0.002139 1.000000 1.000000
0.013710 1.000000 1.000000
0.067682 1.000000 1.000000
0.472283 1.000000 1.000000
1.000000 1.000000 1.000000
1.000000 1.000000 1.000000
0.000000 1.000000 1.000000
0.000000 1.000000 1.000000
0.002139 1.000000 1.000000
0.013710 1.000000 1.000000
0.067682 1.000000 1.000000
0.472283 1.000000 1.000000
1.000000 1.000000 1.000000
1.000000 1.000000 1.000000
